client/assets/images/email-providers/titan/powered-by-titan.svg

<svg width="187" height="22" viewBox="0 0 187 22" fill="none" xmlns="http://www.w3.org/2000/svg">
<path d="M0.4375 4.72656V16H1.84375V11.9766H4.67969C6.79688 11.9766 8.30469 10.4844 8.30469 8.375C8.30469 6.22656 6.82812 4.72656 4.69531 4.72656H0.4375ZM1.84375 5.97656H4.32812C5.96094 5.97656 6.85938 6.82812 6.85938 8.375C6.85938 9.86719 5.92969 10.7266 4.32812 10.7266H1.84375V5.97656Z" fill="#8c8f94"/>
<path d="M13.6641 16.1484C16.0625 16.1484 17.5469 14.4922 17.5469 11.7891C17.5469 9.07812 16.0625 7.42969 13.6641 7.42969C11.2656 7.42969 9.78125 9.07812 9.78125 11.7891C9.78125 14.4922 11.2656 16.1484 13.6641 16.1484ZM13.6641 14.9375C12.0703 14.9375 11.1719 13.7812 11.1719 11.7891C11.1719 9.78906 12.0703 8.64062 13.6641 8.64062C15.2578 8.64062 16.1562 9.78906 16.1562 11.7891C16.1562 13.7812 15.2578 14.9375 13.6641 14.9375Z" fill="#8c8f94"/>
<path d="M29.9375 7.57812H28.5859L26.9297 14.3125H26.8047L24.9219 7.57812H23.6328L21.75 14.3125H21.625L19.9688 7.57812H18.6094L20.9688 16H22.3281L24.2031 9.48438H24.3281L26.2109 16H27.5781L29.9375 7.57812Z" fill="#8c8f94"/>
<path d="M34.7812 8.61719C36.1172 8.61719 37.0078 9.60156 37.0391 11.0938H32.3984C32.5 9.60156 33.4375 8.61719 34.7812 8.61719ZM37 13.8203C36.6484 14.5625 35.9141 14.9609 34.8281 14.9609C33.3984 14.9609 32.4688 13.9062 32.3984 12.2422V12.1797H38.4531V11.6641C38.4531 9.04688 37.0703 7.42969 34.7969 7.42969C32.4844 7.42969 31 9.14844 31 11.7969C31 14.4609 32.4609 16.1484 34.7969 16.1484C36.6406 16.1484 37.9375 15.2656 38.3438 13.8203H37Z" fill="#8c8f94"/>
<path d="M40.5625 16H41.9062V10.7812C41.9062 9.59375 42.8359 8.73438 44.1172 8.73438C44.3828 8.73438 44.8672 8.78125 44.9766 8.8125V7.46875C44.8047 7.44531 44.5234 7.42969 44.3047 7.42969C43.1875 7.42969 42.2188 8.00781 41.9688 8.82812H41.8438V7.57812H40.5625V16Z" fill="#8c8f94"/>
<path d="M49.7812 8.61719C51.1172 8.61719 52.0078 9.60156 52.0391 11.0938H47.3984C47.5 9.60156 48.4375 8.61719 49.7812 8.61719ZM52 13.8203C51.6484 14.5625 50.9141 14.9609 49.8281 14.9609C48.3984 14.9609 47.4688 13.9062 47.3984 12.2422V12.1797H53.4531V11.6641C53.4531 9.04688 52.0703 7.42969 49.7969 7.42969C47.4844 7.42969 46 9.14844 46 11.7969C46 14.4609 47.4609 16.1484 49.7969 16.1484C51.6406 16.1484 52.9375 15.2656 53.3438 13.8203H52Z" fill="#8c8f94"/>
<path d="M58.6797 16.1484C59.8438 16.1484 60.8438 15.5938 61.375 14.6562H61.5V16H62.7812V4.23438H61.4375V8.90625H61.3203C60.8438 7.98438 59.8516 7.42969 58.6797 7.42969C56.5391 7.42969 55.1406 9.14844 55.1406 11.7891C55.1406 14.4375 56.5234 16.1484 58.6797 16.1484ZM58.9922 8.64062C60.5156 8.64062 61.4688 9.85938 61.4688 11.7891C61.4688 13.7344 60.5234 14.9375 58.9922 14.9375C57.4531 14.9375 56.5312 13.7578 56.5312 11.7891C56.5312 9.82812 57.4609 8.64062 58.9922 8.64062Z" fill="#8c8f94"/>
<path d="M74.0938 16.1484C76.2266 16.1484 77.625 14.4219 77.625 11.7891C77.625 9.14062 76.2344 7.42969 74.0938 7.42969C72.9375 7.42969 71.9141 8 71.4531 8.90625H71.3281V4.23438H69.9844V16H71.2656V14.6562H71.3906C71.9219 15.5938 72.9219 16.1484 74.0938 16.1484ZM73.7812 8.64062C75.3203 8.64062 76.2344 9.82031 76.2344 11.7891C76.2344 13.7578 75.3203 14.9375 73.7812 14.9375C72.25 14.9375 71.2969 13.7344 71.2969 11.7891C71.2969 9.84375 72.25 8.64062 73.7812 8.64062Z" fill="#8c8f94"/>
<path d="M80.1406 19.0469C81.6328 19.0469 82.3047 18.4688 83.0234 16.5156L86.3125 7.57812H84.8828L82.5781 14.5078H82.4531L80.1406 7.57812H78.6875L81.8047 16.0078L81.6484 16.5078C81.2969 17.5234 80.875 17.8906 80.1016 17.8906C79.9141 17.8906 79.7031 17.8828 79.5391 17.8516V19C79.7266 19.0312 79.9609 19.0469 80.1406 19.0469Z" fill="#8c8f94"/>
<path d="M118.014 1.56805C118.014 1.13746 117.585 0.849656 117.205 1.02502L106.273 6.06261C106.065 6.1582 105.932 6.37094 105.932 6.60564V21.4047C105.932 21.8467 106.382 22.1341 106.764 21.9365L113.669 18.369C113.864 18.2683 113.987 18.0624 113.987 17.8372V9.85829L117.724 7.65114C117.896 7.54989 118.005 7.36523 118.014 7.16264L118.014 7.13491V1.56805ZM116.864 2.48421V6.79002L113.126 8.99724C112.955 9.0985 112.846 9.28316 112.837 9.48576L112.836 9.51349V17.4702L107.083 20.4432V6.9917L116.864 2.48421ZM96.1521 0C95.3384 0 94.9031 0.752082 95.0182 1.4178C95.0063 1.46532 95 1.51562 95 1.56805V7.13491L95.0006 7.16264C95.0097 7.36523 95.1184 7.54989 95.2899 7.65114L99.0275 9.85829V17.8372C99.0275 18.0624 99.1506 18.2683 99.3455 18.369L106.25 21.9365C106.632 22.1341 107.083 21.8467 107.083 21.4047V6.98301L117.33 2.27588C118.454 1.75955 118.112 0.0356723 116.9 0.000544796L116.862 0H96.1521ZM96.1507 2.48979L100.062 4.28651L105.932 6.9915V20.4425L100.178 17.4697V9.5132L100.178 9.48547C100.168 9.28288 100.06 9.09822 99.8883 8.99697L96.1507 6.78982V2.48979ZM96.1659 1.18911L116.862 1.18919L106.507 5.94593L100.535 3.2025L96.1659 1.18911ZM95.2301 1.18919H95V1.66486H95.2301V1.18919ZM118.014 1.18919H117.784V1.66486H118.014V1.18919Z" fill="#101517"/>
<path d="M130.401 17.837V2.94743H136.146C136.273 2.94743 136.376 2.84114 136.376 2.71002V1.66319C136.376 1.53207 136.273 1.42578 136.146 1.42578H123.077C122.95 1.42578 122.847 1.53207 122.847 1.66319V2.71002C122.847 2.84114 122.95 2.94743 123.077 2.94743H128.8V17.837C128.8 17.9681 128.903 18.0744 129.03 18.0744H130.171C130.298 18.0744 130.401 17.9681 130.401 17.837ZM140.246 17.837V1.66319C140.246 1.53207 140.143 1.42578 140.015 1.42578H138.865C138.738 1.42578 138.635 1.53207 138.635 1.66319V17.837C138.635 17.9681 138.738 18.0744 138.865 18.0744H140.015C140.143 18.0744 140.246 17.9681 140.246 17.837ZM150.056 18.0744V2.94552H155.8C155.927 2.94552 156.03 2.83923 156.03 2.70811V1.66319C156.03 1.53207 155.927 1.42578 155.8 1.42578H142.731C142.604 1.42578 142.501 1.53207 142.501 1.66319V2.70811C142.501 2.83923 142.604 2.94552 142.731 2.94552H148.454V17.837C148.454 17.9681 148.557 18.0744 148.684 18.0744H150.056ZM163.532 1.42578L171.748 18.0093C171.755 18.0225 171.758 18.0371 171.758 18.0519C171.758 18.0643 171.748 18.0744 171.736 18.0744H170.169C170.082 18.0744 170.002 18.0235 169.963 17.9429L168.295 14.4923H158.38L156.648 17.9461C156.609 18.0249 156.53 18.0744 156.444 18.0744H154.874C154.862 18.0744 154.852 18.0643 154.852 18.0519C154.852 18.0371 154.856 18.0225 154.862 18.0094L163.359 1.42578H163.532ZM163.424 4.37702L159.16 12.9153H167.537L163.424 4.37702ZM187 18.0744V1.73041C187 1.59929 186.897 1.493 186.77 1.493H185.628C185.501 1.493 185.398 1.59929 185.398 1.73041V14.422L174.315 1.42578H174.077V17.7249C174.077 17.8561 174.18 17.9624 174.307 17.9624H175.427C175.554 17.9624 175.657 17.8561 175.657 17.7249V5.05576L186.783 18.0744H187Z" fill="#101517"/>
</svg>

<svg width="187" height="22" fill="none" xmlns="http://www.w3.org/2000/svg"><path d="M.438 4.727V16h1.406v-4.023H4.68c2.117 0 3.625-1.493 3.625-3.602 0-2.148-1.477-3.648-3.61-3.648H.437zm1.406 1.25h2.484c1.633 0 2.531.851 2.531 2.398 0 1.492-.93 2.352-2.53 2.352H1.843v-4.75zM13.664 16.148c2.399 0 3.883-1.656 3.883-4.359 0-2.71-1.485-4.36-3.883-4.36-2.398 0-3.883 1.65-3.883 4.36 0 2.703 1.485 4.36 3.883 4.36zm0-1.21c-1.594 0-2.492-1.157-2.492-3.149 0-2 .898-3.148 2.492-3.148 1.594 0 2.492 1.148 2.492 3.148 0 1.992-.898 3.149-2.492 3.149zM29.938 7.578h-1.352l-1.656 6.734h-.125l-1.883-6.734h-1.29l-1.882 6.734h-.125l-1.656-6.734h-1.36L20.97 16h1.36l1.874-6.516h.125L26.211 16h1.367l2.36-8.422zM34.781 8.617c1.336 0 2.227.985 2.258 2.477H32.4c.101-1.492 1.038-2.477 2.382-2.477zM37 13.82c-.352.742-1.086 1.14-2.172 1.14-1.43 0-2.36-1.054-2.43-2.718v-.062h6.055v-.516c0-2.617-1.383-4.234-3.656-4.234C32.484 7.43 31 9.148 31 11.797c0 2.664 1.46 4.351 3.797 4.351 1.844 0 3.14-.882 3.547-2.328H37zM40.563 16h1.343v-5.219c0-1.187.93-2.047 2.211-2.047.266 0 .75.047.86.079V7.468a5.772 5.772 0 00-.672-.04c-1.117 0-2.086.579-2.336 1.4h-.125v-1.25h-1.282V16zM49.781 8.617c1.336 0 2.227.985 2.258 2.477H47.4c.101-1.492 1.038-2.477 2.382-2.477zM52 13.82c-.352.742-1.086 1.14-2.172 1.14-1.43 0-2.36-1.054-2.43-2.718v-.062h6.055v-.516c0-2.617-1.383-4.234-3.656-4.234C47.484 7.43 46 9.148 46 11.797c0 2.664 1.46 4.351 3.797 4.351 1.844 0 3.14-.882 3.547-2.328H52zM58.68 16.148c1.164 0 2.164-.554 2.695-1.492h.125V16h1.281V4.234h-1.343v4.672h-.118c-.476-.922-1.468-1.476-2.64-1.476-2.14 0-3.54 1.718-3.54 4.36 0 2.648 1.383 4.358 3.54 4.358zm.312-7.507c1.524 0 2.477 1.218 2.477 3.148 0 1.945-.946 3.149-2.477 3.149-1.539 0-2.46-1.18-2.46-3.149 0-1.96.929-3.148 2.46-3.148zM74.094 16.148c2.133 0 3.531-1.726 3.531-4.359 0-2.648-1.39-4.36-3.531-4.36-1.156 0-2.18.571-2.64 1.477h-.126V4.234h-1.344V16h1.282v-1.344h.125c.53.938 1.53 1.492 2.703 1.492zm-.313-7.507c1.54 0 2.453 1.18 2.453 3.148 0 1.969-.914 3.149-2.453 3.149-1.531 0-2.484-1.204-2.484-3.149s.953-3.148 2.484-3.148zM80.14 19.047c1.493 0 2.165-.578 2.883-2.531l3.29-8.938h-1.43l-2.305 6.93h-.125l-2.312-6.93h-1.454l3.118 8.43-.157.5c-.351 1.015-.773 1.383-1.546 1.383a3.24 3.24 0 01-.563-.04V19c.188.031.422.047.602.047z" fill="#8c8f94"/><path d="M118.014 1.568c0-.43-.429-.718-.809-.543l-10.932 5.038a.595.595 0 00-.341.543v14.799c0 .442.45.73.832.531l6.905-3.567a.597.597 0 00.318-.532V9.858l3.737-2.207a.597.597 0 00.29-.488V1.568zm-1.15.916V6.79l-3.738 2.207a.598.598 0 00-.289.489l-.001.027v7.957l-5.753 2.973V6.992l9.781-4.508zM96.152 0c-.814 0-1.249.752-1.134 1.418a.618.618 0 00-.018.15v5.595c.01.202.118.387.29.488l3.737 2.207v7.98c0 .224.124.43.319.531l6.904 3.567c.382.198.833-.09.833-.531V6.983l10.247-4.707c1.124-.516.782-2.24-.43-2.275L116.862 0h-20.71zm-.001 2.49l3.911 1.797 5.87 2.705v13.45l-5.754-2.972V9.485a.6.6 0 00-.29-.488L96.151 6.79v-4.3zm.015-1.3h20.696l-10.355 4.756-5.972-2.743-4.37-2.014zm-.936 0H95v.475h.23v-.476zm22.784 0h-.23v.475h.23v-.476zM130.401 17.837V2.947h5.745c.127 0 .23-.106.23-.237V1.663a.234.234 0 00-.23-.237h-13.069a.234.234 0 00-.23.237V2.71c0 .131.103.237.23.237h5.723v14.89c0 .131.103.237.23.237h1.141c.127 0 .23-.106.23-.237zm9.845 0V1.663a.234.234 0 00-.231-.237h-1.15a.234.234 0 00-.23.237v16.174c0 .131.103.237.23.237h1.15a.234.234 0 00.231-.237zm9.81.237V2.946h5.744c.127 0 .23-.107.23-.238V1.663a.234.234 0 00-.23-.237h-13.069a.234.234 0 00-.23.237v1.045c0 .131.103.238.23.238h5.723v14.891c0 .131.103.237.23.237h1.372zm13.476-16.648l8.216 16.583a.09.09 0 01.01.043c0 .012-.01.022-.022.022h-1.567a.23.23 0 01-.206-.131l-1.668-3.45h-9.915l-1.732 3.453a.228.228 0 01-.204.128h-1.57a.022.022 0 01-.022-.022c0-.015.004-.03.01-.043l8.497-16.583h.173zm-.108 2.951l-4.264 8.538h8.377l-4.113-8.538zM187 18.074V1.73a.234.234 0 00-.23-.237h-1.142a.234.234 0 00-.23.237v12.692L174.315 1.426h-.238v16.299c0 .131.103.237.23.237h1.12c.127 0 .23-.106.23-.237V5.055l11.126 13.02H187z" fill="#101517"/></svg>
